X:1
T:Title
%%score ( 1 2 ) { 3 | 4 }
L:1/8
Q:1/4=105
M:4/4
K:F
V:1 treble nm="Grand Piano, Soprano"
V:2 treble 
V:3 treble nm="Choir Pad, In the Ark"
V:4 bass 
V:1
 AB [Fc]2 [Fc]2 [FA]2 | [FA][Ac][Ac][GB] [GB][FA] [EG]2 | [EG][FA] [GB]2 [GB]2 [EG]2 | %3
w: By~Russell~Kelso~Carter * * * *|||
 [Bd][Ac] [FA]6 | [Fc]2 [Fd]2 [Fd]2 [FB]2 | [Fd]2 [Fd]2 [Fc]2 [Fc]2 | [FA][GB] [Fc]2 BA [EG]2 | %7
w: ||||
 [CG]2 [CF]6 | [FA][GB] [Fc]2 [Fc]>[Fc] [FA]2 | [FA][Ac][Ac][GB] [GB][FA] [EG]2 | %10
w: |||
 [EG][FA][GB][GB] [EG][FA][GB][Bd] | [Ac][GB] [FA]6 | [Fc][Fc] [Fd]2 [Fd]2 [Ff]2 | %13
w: |||
 [Fd][Fd][Fd][Fc] [Fc][FA] [Fc]2 | [FA][GB][Ac][Ac] [GB][FA] [EG]2 | [CG]2 [CF]6- | [CF]2 z2 z4 |] %17
w: ||||
V:2
 F2 z2 z4 | x8 | x8 | x8 | x8 | x8 | z4 F2 z2 | x8 | x8 | x8 | x8 | x8 | x8 | x8 | x8 | x8 | x8 |] %17
V:3
 C2 A,2 A,2 C2 | C2 C2 C2 C2 | C2 C2 C2 C2 | C2 C6 | A,2 B,2 B,2 D2 | B,2 B,2 A,2 A,2 | %6
 C2 C2 D2 C2 | B,2 A,6 | CC[K:bass] A,2 A,>A, C2 | C[K:treble]CCC CC C2 | CCCC CCCC | CC C6 | %12
 A,A, B,2 B,2 D2 | B,B,B,A, A,[K:treble]C A,2 | CCCC D[K:bass]C C2 | B,2 A,6- | A,2 z2 z4 |] %17
V:4
 F,2 F,2 F,2 F,2 | F,2 C,2 C,2 C,2 | C,2 C,2 C,2 C,2 | C,2 F,6 | F,2 z2 z2 B,2 | B,,2 F,2 F,2 F,2 | %6
 F,2 A,,2 B,,2 C,2 | C,2 F,6 | F,F, F,2 F,>F, F,2 | F,F,C,C, C,C, C,2 | C,C,C,C, C,C,C,C, | %11
 C,C, F,6 | F,F, z2 z2 B,2 | z2 F,F, F,F, F,2 | F,F,F,F, B,,C, C,2 | C,2 F,6- | F,2 z2 z4 |] %17

